X:1
T:White Flag, The
B:Hime's New Collection of Country Dances No. 12 (c. 1814, p. 2)
M:6/8
L:1/8
S:Fleischmann - Sources of Irish Traditional Music (No. 5453)
K:Bb
F|Bcd def|f2 e cfe|dcB {c}BAB|{AB}c2A FGA|
Bcd dgf|f2e cfe|dcB {d}cBA|B3 b2:|
|:c/d/|ede gfe|{e}dcd fdB|{d}c=Bc ecA|
Bdf b2 c/d/|{f}ede gfe|{e}dcd fdB|cgf ec'b|
agf =e_ec|Bcd def|f2e cfe|dcB {c}BAB|
{AB}c2A FGA|Bcd dgf|f2e cfe|dcB {d}cBA|B3 B2:|]

